public/companies/shutter.svg

<svg width="161" height="38" viewBox="0 0 161 38" fill="none" xmlns="http://www.w3.org/2000/svg"><path d="M53.1539 32.7906C50.778 32.7906 48.8148 32.2654 47.2642 31.215C45.7136 30.1646 44.7757 28.5765 44.4506 26.4506L48.052 25.5878C48.3271 27.1384 48.9273 28.2138 49.8527 28.814C50.803 29.3893 51.9035 29.6769 53.1539 29.6769C54.3794 29.6769 55.3173 29.4518 55.9675 29.0016C56.6428 28.5264 56.9804 27.9012 56.9804 27.1259C56.9804 26.3756 56.6678 25.8254 56.0426 25.4752C55.4173 25.1251 54.5045 24.8375 53.304 24.6124L51.991 24.3873C50.7405 24.1622 49.6026 23.8371 48.5772 23.4119C47.5518 22.9868 46.739 22.3991 46.1387 21.6488C45.5385 20.8985 45.2384 19.9356 45.2384 18.7601C45.2384 17.0095 45.8886 15.6589 47.1891 14.7086C48.4896 13.7332 50.2153 13.2455 52.3661 13.2455C54.4419 13.2455 56.1426 13.7207 57.4681 14.6711C58.8186 15.5964 59.694 16.8594 60.0941 18.46L56.4927 19.4729C56.2676 18.3475 55.7925 17.5597 55.0672 17.1095C54.3419 16.6343 53.4416 16.3967 52.3661 16.3967C51.3157 16.3967 50.4904 16.5968 49.8902 16.997C49.2899 17.3721 48.9898 17.9098 48.9898 18.6101C48.9898 19.3604 49.2774 19.9106 49.8527 20.2607C50.4529 20.6109 51.2532 20.8735 52.2536 21.0485L53.5666 21.2736C54.8921 21.4987 56.0926 21.8238 57.168 22.249C58.2684 22.6492 59.1438 23.2244 59.794 23.9747C60.4443 24.6999 60.7694 25.6878 60.7694 26.9383C60.7694 28.814 60.0691 30.2646 58.6686 31.29C57.293 32.2904 55.4548 32.7906 53.1539 32.7906Z" fill="white"></path><path d="M62.6598 32.2654V6.00519H66.5238V16.3967H67.124C67.4741 15.6965 68.0869 15.0337 68.9622 14.4085C69.8376 13.7832 71.1631 13.4706 72.9388 13.4706C74.3393 13.4706 75.5773 13.7832 76.6527 14.4085C77.7531 15.0337 78.616 15.9215 79.2412 17.072C79.8665 18.2224 80.1791 19.5855 80.1791 21.1611V32.2654H76.3151V21.4612C76.3151 19.8606 75.9149 18.6851 75.1146 17.9348C74.3143 17.1595 73.2139 16.7719 71.8133 16.7719C70.2127 16.7719 68.9247 17.2971 67.9493 18.3475C66.999 19.3979 66.5238 20.9235 66.5238 22.9243V32.2654H62.6598Z" fill="white"></path><path d="M89.9112 32.603C88.5106 32.603 87.2601 32.2904 86.1597 31.6651C85.0593 31.0399 84.1965 30.1521 83.5712 29.0016C82.946 27.8512 82.6334 26.4756 82.6334 24.875V13.7707H86.4974V24.6124C86.4974 26.213 86.8975 27.401 87.6978 28.1763C88.4981 28.9266 89.6111 29.3017 91.0366 29.3017C92.6122 29.3017 93.8752 28.7765 94.8256 27.7261C95.801 26.6507 96.2887 25.1126 96.2887 23.1118V13.7707H100.153V32.2654H96.3637V29.4893H95.7635C95.4133 30.2396 94.7881 30.9524 93.8877 31.6276C92.9874 32.2779 91.6619 32.603 89.9112 32.603Z" fill="white"></path><path d="M110.179 32.2654C109.053 32.2654 108.153 31.9278 107.478 31.2525C106.827 30.5772 106.502 29.6769 106.502 28.5514V17.0345H101.4V13.7707H106.502V7.65583H110.366V13.7707H118.657V7.65583H122.483V13.7707H128.036V17.0345H122.483V27.8762C122.483 28.6265 122.846 29.0016 123.571 29.0016H127.398V32.2654H122.333C121.183 32.2654 120.283 31.9278 119.632 31.2525C118.982 30.5772 118.657 29.6769 118.657 28.5514V17.0345H110.366V27.8762C110.366 28.6265 110.716 29.0016 111.417 29.0016H115.281V32.2654H110.179Z" fill="white"></path><path d="M138.436 32.7906C136.56 32.7906 134.922 32.4029 133.521 31.6276C132.121 30.8273 131.02 29.7144 130.22 28.2888C129.445 26.8633 129.057 25.1876 129.057 23.2619V22.8117C129.057 20.886 129.445 19.2103 130.22 17.7848C131.02 16.3592 132.108 15.2463 133.484 14.446C134.859 13.6457 136.46 13.2455 138.286 13.2455C140.061 13.2455 141.612 13.6457 142.937 14.446C144.288 15.2213 145.338 16.3092 146.089 17.7097C146.839 19.1103 147.214 20.7484 147.214 22.6241V24.0872H132.996C133.046 25.7128 133.584 27.0133 134.609 27.9887C135.66 28.9391 136.96 29.4143 138.511 29.4143C139.961 29.4143 141.049 29.0891 141.774 28.4389C142.525 27.7886 143.1 27.0384 143.5 26.188L146.726 27.8387C146.351 28.5389 145.839 29.2767 145.188 30.052C144.538 30.8273 143.663 31.4776 142.562 32.0028C141.462 32.528 140.086 32.7906 138.436 32.7906ZM133.034 21.1236H143.313C143.188 19.748 142.675 18.6601 141.774 17.8598C140.874 17.0595 139.699 16.6593 138.248 16.6593C136.798 16.6593 135.61 17.0595 134.684 17.8598C133.784 18.6601 133.234 19.748 133.034 21.1236Z" fill="white"></path><path d="M149.239 32.2654V13.7707H153.028V15.9465H153.628C153.929 15.1712 154.404 14.6085 155.054 14.2584C155.704 13.8832 156.53 13.6957 157.53 13.6957H159.743V17.1845H157.38C156.104 17.1845 155.067 17.5347 154.266 18.2349C153.491 18.9102 153.103 19.9606 153.103 21.3862V32.2654H149.239Z" fill="white"></path><path fill-rule="evenodd" clip-rule="evenodd" d="M0 29.5393L31.2621 29.5393L31.2621 34.7277L-4.53582e-07 34.7276L0 29.5393Z" fill="white"></path><path fill-rule="evenodd" clip-rule="evenodd" d="M0 24.4586L31.2621 24.4586L31.2621 28.6093L3.62866e-07 28.6093L0 24.4586Z" fill="white"></path><path fill-rule="evenodd" clip-rule="evenodd" d="M0 19.8232L31.2621 19.8232L31.2621 23.3253L-3.06168e-07 23.3253L0 19.8232Z" fill="white"></path><path fill-rule="evenodd" clip-rule="evenodd" d="M0 15.002L31.2621 15.002L31.2621 17.7259L-2.3813e-07 17.7258L0 15.002Z" fill="white"></path><path fill-rule="evenodd" clip-rule="evenodd" d="M0 9.85645L31.2621 9.85645L31.2621 11.9318L-1.81433e-07 11.9318L0 9.85645Z" fill="white"></path><path fill-rule="evenodd" clip-rule="evenodd" d="M0 3.73813L31.2621 3.73813L31.2621 4.77581L-9.07164e-08 4.7758L0 3.73813Z" fill="white"></path></svg>

<svg width="161" height="38" viewBox="0 0 161 38" fill="none" xmlns="http://www.w3.org/2000/svg"><path d="M53.154 32.79q-3.564 0-5.89-1.575-2.325-1.576-2.813-4.764l3.601-.863q.413 2.326 1.8 3.226 1.427.863 3.302.863 1.838 0 2.813-.675 1.013-.713 1.013-1.876 0-1.125-.937-1.65-.938-.526-2.739-.864l-1.313-.225q-1.875-.338-3.414-.975-1.538-.638-2.438-1.763t-.9-2.889q0-2.625 1.95-4.051 1.95-1.463 5.177-1.463 3.114 0 5.102 1.425 2.026 1.387 2.626 3.789l-3.601 1.013q-.337-1.688-1.426-2.363-1.088-.713-2.7-.713-1.577 0-2.477.6-.9.563-.9 1.613 0 1.125.863 1.65.9.525 2.4.788l1.314.226q1.988.338 3.601.975 1.65.6 2.626 1.726.975 1.088.975 2.963 0 2.814-2.1 4.352-2.064 1.5-5.515 1.5m9.506-.525V6.005h3.864v10.392h.6q.525-1.05 1.838-1.988 1.314-.939 3.977-.938 2.1 0 3.714.938 1.65.937 2.588 2.663t.938 4.09v11.103h-3.864V21.461q0-2.4-1.2-3.526-1.2-1.163-3.302-1.163-2.4 0-3.864 1.576-1.425 1.575-1.425 4.576v9.341zm27.251.338q-2.1 0-3.751-.938t-2.589-2.663-.938-4.127V13.771h3.864v10.841q0 2.401 1.2 3.564 1.201 1.126 3.34 1.126 2.362 0 3.789-1.576 1.463-1.613 1.463-4.614V13.77h3.864v18.494h-3.79V29.49h-.6q-.525 1.125-1.875 2.139-1.35.975-3.977.975m20.268-.339q-1.689 0-2.701-1.012-.976-1.014-.976-2.702V17.035H101.4V13.77h5.102V7.656h3.864v6.115h8.291V7.656h3.826v6.115h5.553v3.264h-5.553v10.841q0 1.126 1.088 1.126h3.827v3.263h-5.065q-1.725 0-2.701-1.012-.975-1.014-.975-2.702V17.035h-8.291v10.841q0 1.126 1.051 1.126h3.864v3.263zm28.257.525q-2.814 0-4.915-1.162a8.64 8.64 0 0 1-3.301-3.34q-1.163-2.137-1.163-5.026v-.45q0-2.89 1.163-5.027 1.2-2.139 3.264-3.339t4.802-1.2q2.663 0 4.651 1.2 2.026 1.163 3.152 3.264 1.125 2.1 1.125 4.914v1.463h-14.218q.075 2.439 1.613 3.902 1.576 1.425 3.902 1.425 2.175 0 3.263-.975a6.8 6.8 0 0 0 1.726-2.251l3.226 1.65q-.562 1.05-1.538 2.214-.975 1.163-2.626 1.95-1.65.789-4.126.789m-5.402-11.666h10.279q-.187-2.064-1.539-3.264-1.35-1.2-3.526-1.2t-3.564 1.2q-1.35 1.2-1.65 3.264m16.205 11.14V13.771h3.789v2.175h.6q.451-1.163 1.426-1.688.976-.562 2.476-.562h2.213v3.489h-2.363q-1.913 0-3.114 1.05-1.163 1.013-1.163 3.151v10.88z" fill="#fff"/><path fill-rule="evenodd" clip-rule="evenodd" d="M0 29.54h31.262v5.188H0zm0-5.081h31.262v4.15H0zm0-4.636h31.262v3.502H0zm0-4.821h31.262v2.724H0zm0-5.146h31.262v2.076H0zm0-6.118h31.262v1.038H0z" fill="#fff"/></svg>
